cg/corner-double-left-up.svg

<svg viewBox="0 0 24 24" fill="none" xmlns="http://www.w3.org/2000/svg" height="1em" width="1em">
  <path d="M7.78372 9.25045L6.36951 7.83624L10.6121 3.59363L14.8548 7.83627L13.4406 9.25048L10.6121 6.42205L7.78372 9.25045Z" fill="currentColor"/>
  <path d="M13.4406 13.4932L14.8548 12.0789L10.6121 7.83628L6.36951 12.0789L7.78372 13.4931L9.63052 11.6463V16.4063C9.63052 18.6155 11.4214 20.4063 13.6305 20.4063H17.6305V18.4063H13.6305C12.526 18.4063 11.6305 17.5109 11.6305 16.4063V11.6831L13.4406 13.4932Z" fill="currentColor"/>
</svg>

<svg viewBox="0 0 24 24" fill="none" xmlns="http://www.w3.org/2000/svg" height="1em" width="1em">
  <path d="M7.784 9.25 6.37 7.836l4.242-4.242 4.243 4.242L13.44 9.25l-2.829-2.828L7.784 9.25Z" fill="currentColor"/>
  <path d="m13.44 13.493 1.415-1.414-4.243-4.243L6.37 12.08l1.414 1.414 1.847-1.847v4.76a4 4 0 0 0 4 4h4v-2h-4a2 2 0 0 1-2-2v-4.723l1.81 1.81Z" fill="currentColor"/>
</svg>
